X:1
T:Pietas, 886
T:Pietas, 886
T:Anonymous, 1898
T:Public Domain Courtesy of the Cyber Hymnal™
C:Anonymous, 1898
Z:Public Domain
Z:Courtesy of the Cyber Hymnal™
%%score ( 1 2 ) ( 3 4 )
L:1/8
M:3/4
K:D
V:1 treble 
V:2 treble 
V:3 bass 
V:4 bass 
V:1
 A2 | [Fd]4 [DF]2 | [CA]4 C2 | [B,D]4 [A,E]2 | [A,F]4 [D^G]2 | [Cc]4 [EB]2 | ([Ec]2 [Ae]2) [Bd]2 | %7
 c4 [^GB]2 | [EA]6 | d4 F2 | A4 D2 | [GB]6 | [FA]8 |] %13
V:2
 A2 | x6 | x4 C2 | x6 | x6 | x6 | x6 | (B2 A2) x2 | x6 | d4 F2 | A4 D2 | x6 | x8 |] %13
V:3
 A,2 | [D,A,]4 B,2 | [F,A,]4 [A,,A,]2 | [B,,F,]4 [C,E,]2 | D,4 [B,D]2 | [F,A,]4 [E,^G,]2 | %6
 A,4 [D,F]2 | [E,E]4 [E,D]2 | [A,C]6 | D4 F,2 | A,4 D,2 | D6 | [D,D]8 |] %13
V:4
 A,2 | x4 B,2 | x6 | x6 | D,4 x2 | x6 | (A,,2 C,2) x2 | x6 | x6 | D4 F,2 | A,4 D,2 | (G,,4 B,,2) | %12
 x8 |] %13

